shape-rectangle-plus.svg

<svg fill="currentColor" viewBox="0 0 24 24"><path d="M19 6h3v2h-3v3h-2V8h-3V6h3V3h2zm-2 11v-3h2v5H3V6h8v2H5v9z"/></svg>

<svg  viewBox="0 0 24 24" fill="currentColor"><path  d="M19,6H22V8H19V11H17V8H14V6H17V3H19V6M17,17V14H19V19H3V6H11V8H5V17H17Z"/></svg>
